X: 13
T:Bishop's Jig
M:6/8
L:1/8
R:Jig
Z:bil@blueskiesink.com
K:G
dgB BAB|cBA ABA|GFG ABA|BAB ABc|dgB BAB|cBA ABA|GGG A2 F|G3 G3|!
gfe dcB|edc Bcd|eAA BAA|BAG FED|gfe dcB|edc Bcd| e3 f2 e|1{f}ed^c d2|2 d
ef g2 z||
<end>
<start>
